X:236
T:Polska efter Johan Eric Blomgren
R:sl\"angpolska
A:H\"asslunda, Sk{\aa}ne
B:Notbok fr{\aa}n 1785
Z:id:hn-sp-236
M:3/4
L:1/16
K:Dm
D2DE FEFG A4 | d^cde fefg a4 | F2a2 E2g2 D2f2 | d^cdf edc=B AGFE |
D2DE FEFG A4 | d^cde fefg a4 | fefa gfeg fedf | ed^ce d4 D4 :|
|: d2de fefg a2^c2 | defg fefd ^c2A2 | D2DE FEFG A2^C2 | DEFG FDFD ^C2A,2 |
D2DE FEFG A4 | d^cde fefg a4 | F2a2 E2g2 D2f2 | ed^ce d4 D4 :|

